src/icons/outline/communication/phone.svg

<svg width="24" height="24" viewBox="0 0 24 24" fill="none" xmlns="http://www.w3.org/2000/svg">
<g clip-path="url(#clip0_4191_650)">
<path d="M16.3298 23C16.2276 23 16.1356 23 16.0334 23C14.347 22.9499 13.0286 22.3692 11.9554 21.8084C9.56385 20.5567 7.74461 18.7343 6.42618 17.2923C4.56606 15.2496 3.25784 13.1868 2.54241 11.1441C1.49993 8.19013 1.98029 5.07595 3.80975 3.03321C4.05504 2.76285 4.37187 2.5025 4.68871 2.25216L5.14862 1.87165C5.50634 1.56123 5.94582 1.17071 6.61015 1.04053C8.2863 0.730117 9.2879 2.27219 9.95223 3.29356L10.0544 3.44376C10.7188 4.45512 11.5568 5.73684 11.1889 7.1988C10.9947 7.98986 10.4121 8.45048 9.94201 8.81096C9.86024 8.88106 9.77848 8.94114 9.69672 9.01123C9.57407 9.12138 9.43098 9.22151 9.27768 9.33166C8.99151 9.54194 8.66445 9.78226 8.60313 9.98253C8.39872 10.6835 8.99151 11.5947 9.21636 11.9452C10.0647 13.2569 11.0663 14.3484 12.2518 15.3097C12.7015 15.6702 13.4578 16.281 14.02 16.1708C14.3981 16.1007 14.6638 15.8304 15.0727 15.3898C15.553 14.8791 16.156 14.2382 17.1679 14.088C18.7418 13.8477 19.8252 14.789 20.6121 15.4699L21.1538 15.9305C21.9715 16.5914 23.0957 17.5026 22.9935 18.8344C22.922 19.7256 22.2883 20.2563 21.8284 20.6468L21.7364 20.727C21.5933 20.8471 21.4604 20.9773 21.3173 21.0974C21.021 21.3778 20.7143 21.6582 20.3668 21.8785C19.2222 22.6095 17.8628 22.98 16.3196 22.98L16.3298 23ZM6.89632 2.51251C6.66125 2.55256 6.4364 2.75283 6.17067 2.98314L5.65965 3.40371C5.39391 3.61399 5.11796 3.83428 4.96466 4.01452C3.51336 5.62669 3.1352 8.23018 3.99372 10.6334C4.64782 12.4859 5.85383 14.3884 7.58109 16.281C8.8893 17.7129 10.5143 19.3351 12.6811 20.4666C13.6418 20.9673 14.7149 21.4379 16.0845 21.478C17.4438 21.528 18.5987 21.2276 19.5492 20.6268C19.7843 20.4766 20.0296 20.2463 20.2851 20.006C20.4384 19.8658 20.5917 19.7256 20.745 19.5854L20.837 19.5053C21.2254 19.1749 21.4604 18.9646 21.4809 18.7143C21.5218 18.1535 20.7859 17.5627 20.1931 17.072L19.6105 16.5814C18.9564 16.0206 18.2819 15.4399 17.4131 15.56C16.9532 15.6301 16.6568 15.9205 16.2174 16.3911C15.7472 16.8918 15.226 17.4526 14.3368 17.6228C13.0695 17.8731 11.9554 16.9819 11.2911 16.4512C9.97267 15.3998 8.87908 14.1782 7.92858 12.7362C7.60153 12.2356 6.74301 10.9138 7.13139 9.56197C7.32558 8.87104 7.89792 8.45048 8.36806 8.11002C8.48048 8.0199 8.60313 7.93979 8.70533 7.85968C8.79732 7.77958 8.89952 7.70948 8.99151 7.62938C9.339 7.35901 9.63539 7.1287 9.70694 6.8283C9.92157 5.98717 9.35944 5.13603 8.81776 4.32494L8.66445 4.08462C8.06145 3.15337 7.50954 2.38233 6.89632 2.49248V2.51251Z" fill="#3C3B44"/>
</g>
<defs>
<clipPath id="clip0_4191_650">
<rect width="24" height="24" fill="white"/>
</clipPath>
</defs>
</svg>

<svg xmlns="http://www.w3.org/2000/svg" width="24" height="24" fill="none" viewBox="0 0 24 24"><g clip-path="url(#a)"><path fill="currentColor" d="M16.33 23h-.297c-1.686-.05-3.004-.63-4.078-1.192-2.391-1.251-4.21-3.074-5.529-4.516-1.86-2.042-3.168-4.105-3.884-6.148C1.5 8.19 1.98 5.076 3.81 3.034c.245-.271.562-.531.879-.782l.46-.38c.357-.31.797-.701 1.461-.831C8.286.73 9.288 2.272 9.952 3.294l.102.15c.665 1.011 1.503 2.293 1.135 3.755-.194.79-.777 1.251-1.247 1.612-.082.07-.164.13-.245.2-.123.11-.266.21-.42.32-.285.21-.613.451-.674.652-.204.7.389 1.612.613 1.962a14.2 14.2 0 0 0 3.036 3.365c.45.36 1.206.971 1.768.86.378-.07.644-.34 1.053-.78.48-.51 1.083-1.152 2.095-1.302 1.574-.24 2.657.701 3.444 1.382l.542.46c.817.661 1.942 1.573 1.84 2.904-.072.892-.706 1.422-1.166 1.813l-.092.08c-.143.12-.276.25-.419.37-.296.28-.603.561-.95.781-1.145.732-2.504 1.102-4.047 1.102zM6.896 2.513c-.235.04-.46.24-.725.47l-.511.42c-.266.211-.542.431-.695.612-1.452 1.612-1.83 4.215-.971 6.618.654 1.853 1.86 3.755 3.587 5.648 1.308 1.432 2.933 3.054 5.1 4.186.96.5 2.034.97 3.403 1.011 1.36.05 2.515-.25 3.465-.851.235-.15.48-.38.736-.621l.46-.42.092-.08c.388-.331.623-.541.644-.792.04-.56-.695-1.151-1.288-1.642l-.583-.49c-.654-.561-1.328-1.142-2.197-1.022-.46.07-.756.36-1.196.831-.47.5-.991 1.062-1.88 1.232-1.267.25-2.382-.641-3.046-1.172C9.973 15.4 8.88 14.178 7.93 12.736c-.327-.5-1.186-1.822-.798-3.174.195-.691.767-1.112 1.237-1.452.112-.09.235-.17.337-.25.092-.08.195-.15.287-.23.347-.271.643-.501.715-.802.215-.84-.348-1.692-.89-2.503l-.153-.24c-.603-.932-1.154-1.703-1.768-1.593z"/></g><defs><clipPath id="a"><path fill="currentColor" d="M0 0h24v24H0z"/></clipPath></defs></svg>
